src/assets/protocols/beradrome.svg

<svg width="128" height="128" viewBox="0 0 128 128" fill="none" xmlns="http://www.w3.org/2000/svg">
<mask id="mask0_6_2" style="mask-type:luminance" maskUnits="userSpaceOnUse" x="11" y="17" width="106" height="94">
<path d="M116.882 17H11V110.474H116.882V17Z" fill="white"/>
</mask>
<g mask="url(#mask0_6_2)">
<path fill-rule="evenodd" clip-rule="evenodd" d="M116.682 90.6221C116.208 80.3242 107.753 72.165 97.4017 72.165C95.2682 72.165 93.1348 72.5611 91.1594 73.1948C91.1065 73.2477 91.0804 73.274 91.0804 73.274C89.7634 73.6965 88.5256 74.2775 87.3666 75.0168L83.4158 63.0553C84.364 59.8075 85.1542 56.4013 84.9961 53.708C84.9961 53.6024 84.9961 53.4967 84.9961 53.3911C84.9961 53.2855 84.9961 53.1798 84.9961 53.0742C84.522 46.4202 82.5466 40.4791 82.4676 40.1622C82.4149 40.0566 82.3359 39.9774 82.2306 39.9246L69.509 30.4188L47.3055 24.24L49.4389 20.913L49.5179 20.7546C49.5969 20.5169 50.071 19.2495 49.5969 18.4573C49.4389 18.1405 49.2018 17.9556 48.8858 17.9028C47.9376 17.6652 36.8753 17.982 31.4232 18.9326C29.8429 19.2495 28.9737 19.4871 28.4996 19.8832C26.2081 21.4675 22.4154 25.2698 22.2573 25.4282L22.0993 25.6659L23.6006 29.5474L24.9439 29.3098L23.8377 32.2407L19.0177 36.756L21.6252 40.7167C21.6252 40.7167 21.6252 40.7431 21.6252 40.7959L22.3364 41.8257L34.5048 43.9645L40.8261 52.0444C39.4038 52.6782 37.3494 53.4703 36.4012 53.4703C36.3485 53.4703 36.3222 53.4703 36.3222 53.4703C36.1642 53.4703 36.0325 53.4967 35.9271 53.5495L28.8157 58.3816L32.6875 63.9267H32.9245C33.1616 64.0059 35.532 64.3228 38.2186 64.5604L41.6953 69.0757L39.2458 73.4325C36.7173 72.2443 33.9517 71.6105 31.1071 71.6105C27.3144 71.6105 23.8377 72.6403 20.9141 74.5415C20.8614 74.5415 20.8087 74.5679 20.756 74.6207C15.3829 78.0269 11.8272 84.0473 11.8272 90.939C11.8272 97.9891 15.541 104.168 21.2301 107.495C21.2828 107.548 21.3091 107.6 21.3091 107.653C24.2327 109.317 27.5514 110.267 31.1071 110.267C41.6953 110.267 50.3871 101.633 50.3871 90.939C50.3871 85.1563 47.7795 79.9281 43.7497 76.3634L45.4091 74.1454L58.4467 87.6912L52.6785 91.2558L64.689 92.5233L59.3949 99.0189L71.0103 98.702C71.5897 98.9135 72.2218 99.0189 72.9067 99.0189C73.6441 99.0189 74.3553 98.8605 75.0401 98.5436L79.465 98.4644C80.7293 101.712 82.8627 104.564 85.5493 106.703C85.602 106.756 85.6283 106.782 85.6283 106.782C85.6283 106.782 85.6546 106.782 85.7073 106.782C88.9469 109.317 92.9768 110.822 97.4017 110.822C108.069 110.822 116.682 102.187 116.682 91.4935C116.682 91.2295 116.682 90.939 116.682 90.6221ZM97.4017 73.1948C107.042 73.1948 114.943 80.641 115.654 90.1468H102.222C101.431 88.1665 99.5351 86.8198 97.3227 86.8198C97.0066 86.8198 96.7166 86.8462 96.4535 86.899L91.8705 73.987C93.6089 73.4325 95.5053 73.1948 97.4017 73.1948ZM101.669 92.1272C101.669 94.5036 99.6931 96.484 97.3227 96.484C94.9522 96.484 92.9768 94.5036 92.9768 92.1272C92.9768 90.1468 94.32 88.4041 96.2164 87.9288C96.4274 87.876 96.6376 87.8496 96.8486 87.8496C97.0066 87.7968 97.1646 87.7704 97.3227 87.7704C99.6931 87.7704 101.669 89.7508 101.669 92.1272ZM78.9119 72.4819L60.6592 69.3133L84.0479 54.3417C83.9689 60.5204 79.7021 70.5015 78.9119 72.4819ZM55.6021 62.1047L61.9234 48.9551L83.2578 53.6287L59.4739 68.9172L55.6021 62.1047ZM58.6048 69.4717L52.9156 73.9078L47.5425 68.4419L58.1307 68.6004L58.6048 69.4717ZM42.3274 33.9834L55.5231 36.2807L49.4389 42.4594L42.3274 33.9834ZM48.8068 43.2516L42.0904 50.9354L42.2484 35.4093L48.8068 43.2516ZM56.3133 36.8352L61.0543 48.4006L55.128 60.7581L49.992 43.41L56.3133 36.8352ZM68.6398 81.6708L78.9119 73.8286L80.2552 76.6803L74.8821 87.2951H72.8277C71.0103 87.2951 69.43 88.0872 68.4028 89.3547L68.6398 81.6708ZM68.2447 80.7203L60.3431 70.3431L77.8847 73.4325L68.2447 80.7203ZM83.8109 52.8366L61.9234 47.9253L57.2615 36.5975L81.4404 40.7959C81.8355 42.0634 83.4158 47.1331 83.8109 52.8366ZM68.9559 31.3694L79.8601 39.5285L56.7874 35.4885L56.2343 35.4093L41.8533 32.8744L46.6733 25.1114L68.9559 31.3694ZM48.4907 18.9326C48.5697 18.9326 48.5697 18.9326 48.5697 19.0118C48.7277 19.2495 48.5697 19.9624 48.4117 20.4377L46.1202 24.0024L33.3986 19.6455C39.1668 19.0118 47.8586 18.7742 48.4907 18.9326ZM23.9957 28.4384L23.0475 25.9827C23.9167 25.1114 26.9983 22.022 28.8947 20.6753C29.0527 20.5961 29.6058 20.2793 31.2652 19.9624L44.4609 24.4777L25.418 28.2008C25.418 28.2008 25.3917 28.2008 25.339 28.2008L23.9957 28.4384ZM26.5242 41.5881L22.7314 40.9544V40.8751L26.5242 40.2414V41.5881ZM26.5242 39.2116L22.3364 39.8454V34.8548L24.3908 32.9537L26.5242 36.6768V39.2116ZM26.3662 34.3003L27.8675 32.4784C29.1317 32.5576 31.6603 30.4188 31.6603 30.4188L27.4724 30.6564L25.8921 33.5874L24.8649 31.7654L25.8921 29.0721L45.33 25.2698L40.7471 32.716L40.6681 32.7952L27.3144 35.9638L26.3662 34.3003ZM27.5514 41.7465V36.9144L39.8779 33.9834L34.3468 42.9347L27.5514 41.7465ZM35.216 43.4892L41.0632 34.1419L41.1422 34.2211L40.9842 50.777L35.216 43.4892ZM41.3002 52.8366C41.4583 52.731 41.59 52.6782 41.6953 52.6782L41.7743 52.599L41.9324 52.4405L49.1228 44.2022L54.3379 61.8671C53.1526 62.3424 49.755 63.689 47.2264 64.1643L37.1914 54.4209C38.6137 54.104 40.5101 53.2327 41.3002 52.8366ZM33.0825 63.0553L30.0009 58.6985L36.0061 54.6585L45.9622 64.3228C45.6988 64.3228 45.4881 64.3228 45.33 64.3228C42.6435 64.1643 34.5839 63.2138 33.0825 63.0553ZM39.4829 74.7791C40.431 75.3073 41.3265 75.8881 42.1694 76.5219L33.8727 87.7704C33.3986 87.4535 32.9245 87.2159 32.4504 87.0574L39.4829 74.7791ZM35.137 92.048V92.1272C35.137 94.5036 33.2406 96.4048 30.8701 96.4048C30.0799 96.4048 29.3688 96.1672 28.7367 95.7711C27.4724 94.9789 26.6822 93.6323 26.6822 92.1272C26.6822 89.7508 28.5786 87.8496 30.8701 87.8496C31.1335 87.8496 31.3705 87.876 31.5812 87.9288C33.6357 88.2457 35.137 89.9884 35.137 92.048ZM30.8701 72.6403C33.6357 72.6403 36.2432 73.274 38.5347 74.3038L31.4232 86.899C31.2652 86.8462 31.0808 86.8198 30.8701 86.8198C30.238 86.8198 29.6322 86.9518 29.0527 87.2159L21.6252 75.1752C24.3118 73.5909 27.5514 72.6403 30.8701 72.6403ZM12.6174 91.0182C12.6174 84.6018 15.857 79.0567 20.756 75.7297L28.1045 87.6119C26.6822 88.5625 25.655 90.226 25.655 92.1272C25.655 93.7907 26.5242 95.375 27.7885 96.3256L21.2301 106.544C16.0151 103.297 12.6174 97.5138 12.6174 91.0182ZM30.8701 109.317C27.7095 109.317 24.7068 108.525 22.0993 107.02L28.5786 96.8009C29.2898 97.197 30.0799 97.3554 30.8701 97.3554C33.6357 97.3554 35.9271 95.2166 36.1642 92.6025L49.2018 91.4935C48.8858 101.395 40.8261 109.317 30.8701 109.317ZM49.2018 90.5429L36.0852 91.5727C36.0061 90.3053 35.453 89.1962 34.5839 88.4041L42.9596 77.2348C46.6733 80.4826 49.0438 85.2355 49.2018 90.5429ZM45.093 72.6403L42.8015 75.8089C41.906 75.0696 40.9578 74.4359 39.957 73.9078L42.7225 69.0757L39.4038 64.7981C41.6953 65.0357 44.0658 65.2733 45.251 65.3526C45.8041 65.3526 46.4363 65.3526 47.1474 65.1941C49.913 64.7188 53.4687 63.293 54.733 62.8177L57.4195 67.6498L45.014 67.4914L52.2835 74.9376L57.2615 85.2355L45.093 72.6403ZM55.4441 90.6221L59.79 87.9288L59.4739 87.5327L53.3107 74.8583L58.9998 70.3431L67.5336 81.5916L67.2175 91.1766C67.1122 91.3879 67.0332 91.5991 66.9805 91.8103L65.5582 91.6519L55.4441 90.6221ZM61.3703 98.0683L65.7162 92.7609L66.8224 92.8401C66.8224 92.9457 66.8224 93.0778 66.8224 93.2362C66.8224 95.0582 67.6916 96.7217 69.1139 97.8307L61.3703 98.0683ZM74.645 97.6722C74.0129 97.936 73.3545 98.0683 72.6696 98.0683C72.0902 98.0683 71.5371 97.963 71.0103 97.7515C69.1139 97.1177 67.8496 95.2958 67.8496 93.2362C67.8496 93.1306 67.8496 93.0514 67.8496 92.9986L71.8795 93.3946C71.8795 93.3946 71.9058 93.3946 71.9585 93.3946C72.1955 93.3946 72.3536 93.2362 72.4326 92.9193C72.4326 92.6817 72.2746 92.4441 71.9585 92.3648L68.0077 91.9688C68.0077 91.8103 68.034 91.6783 68.0867 91.5727C68.7978 89.6715 70.6152 88.3249 72.6696 88.3249C75.3562 88.3249 77.4896 90.5429 77.4896 93.2362C77.4896 95.2166 76.3044 96.9593 74.645 97.6722ZM76.5414 97.593C77.3316 96.9593 77.8847 96.0087 78.2798 94.9789C78.4378 95.8767 78.6485 96.7478 78.9119 97.593H76.5414ZM78.9119 91.4935C78.9119 90.3845 79.0172 89.2755 79.228 88.1665L78.2008 88.2457C78.0954 89.0378 78.0164 89.8563 77.9637 90.7013C77.4896 89.6715 76.7785 88.8794 75.8303 88.2457H78.2008C78.2535 87.876 78.3325 87.5327 78.4378 87.2159H75.8303L81.2034 76.6803L79.544 73.1156C79.9391 72.165 81.3614 68.6796 82.7047 64.6396L86.3394 75.5713C82.3886 78.2646 79.544 82.3838 78.4378 87.2159H79.465C80.8873 81.2748 85.1542 76.5219 90.7643 74.3831L95.2682 86.9782L79.465 87.2159C79.3597 87.5327 79.2807 87.8496 79.228 88.1665L93.7669 88.008C92.5817 88.9586 91.7915 90.4637 91.7915 92.1272C91.7915 94.1076 92.8187 95.7711 94.32 96.7217H94.083C94.0301 96.7217 94.004 96.7217 94.004 96.7217L88.3148 97.197L79.9391 97.4346C79.307 95.6127 78.9119 93.6323 78.9119 91.4935ZM80.2552 98.4644L88.3938 98.2267L92.8187 97.8307L85.6283 105.673C83.3368 103.772 81.4404 101.316 80.2552 98.4644ZM97.2436 109.871C93.2138 109.871 89.421 108.525 86.4184 106.307L94.32 97.7515L97.1646 97.5138C100.088 97.4346 102.38 95.0582 102.38 92.1272C102.38 91.8103 102.354 91.4935 102.301 91.1766H115.496C115.496 91.2822 115.496 91.3879 115.496 91.4935C115.496 101.633 107.279 109.871 97.2436 109.871Z" fill="url(#paint0_linear_6_2)"/>
</g>
<defs>
<linearGradient id="paint0_linear_6_2" x1="12.0643" y1="74.0512" x2="116.366" y2="74.0512" gradientUnits="userSpaceOnUse">
<stop stop-color="#FEAFE7"/>
<stop offset="1" stop-color="#C100C0"/>
</linearGradient>
</defs>
</svg>

<svg xmlns="http://www.w3.org/2000/svg" fill="none" viewBox="0 0 128 128"><mask id="a" width="106" height="94" x="11" y="17" maskUnits="userSpaceOnUse" style="mask-type:luminance"><path fill="#fff" d="M116.882 17H11v93.474h105.882z"/></mask><g mask="url(#a)"><path fill="url(#b)" fill-rule="evenodd" d="M116.682 90.622c-.474-10.298-8.929-18.457-19.28-18.457-2.134 0-4.267.396-6.243 1.03l-.079.079a16 16 0 0 0-3.713 1.743l-3.951-11.962c.948-3.248 1.738-6.654 1.58-9.347v-.634c-.474-6.654-2.45-12.595-2.528-12.912a.52.52 0 0 0-.237-.237l-12.722-9.506-22.203-6.179 2.133-3.327.079-.158c.079-.238.553-1.505.079-2.298q-.237-.475-.711-.554c-.948-.238-12.01.079-17.463 1.03-1.58.317-2.45.554-2.923.95-2.292 1.585-6.085 5.387-6.243 5.545l-.158.238 1.502 3.881 1.343-.237-1.106 2.93-4.82 4.516 2.607 3.96v.08l.711 1.03 12.169 2.139 6.321 8.08c-1.422.633-3.477 1.425-4.425 1.425h-.079a.9.9 0 0 0-.395.08l-7.111 4.832 3.872 5.545h.236c.238.079 2.608.396 5.295.633l3.476 4.516-2.45 4.357a19.1 19.1 0 0 0-8.138-1.823c-3.793 0-7.27 1.03-10.193 2.932q-.079 0-.158.079c-5.373 3.406-8.929 9.426-8.929 16.318 0 7.05 3.714 13.229 9.403 16.556q.08.079.08.158c2.923 1.664 6.241 2.614 9.797 2.614 10.588 0 19.28-8.634 19.28-19.328 0-5.783-2.608-11.01-6.637-14.576l1.66-2.218 13.037 13.546-5.769 3.565 12.011 1.267-5.294 6.496 11.615-.317q.87.317 1.897.317 1.106 0 2.133-.475l4.425-.08a19.73 19.73 0 0 0 6.084 8.239l.08.079h.078c3.24 2.535 7.27 4.04 11.695 4.04 10.667 0 19.28-8.635 19.28-19.329zm-19.28-17.427c9.64 0 17.541 7.446 18.252 16.952h-13.432a5.25 5.25 0 0 0-4.9-3.327q-.473 0-.868.079L91.87 73.987c1.738-.554 3.634-.792 5.53-.792m4.267 18.932c0 2.377-1.976 4.357-4.346 4.357s-4.346-1.98-4.346-4.357c0-1.98 1.343-3.723 3.24-4.198q.314-.08.632-.08.237-.079.474-.079c2.37 0 4.346 1.98 4.346 4.357M78.912 72.482l-18.253-3.169 23.389-14.971c-.08 6.178-4.346 16.16-5.136 18.14m-23.31-10.377 6.321-13.15 21.335 4.674-23.784 15.288zm3.003 7.367-5.69 4.436-5.373-5.466 10.589.158zM42.327 33.983l13.196 2.298-6.084 6.178zm6.48 9.269-6.717 7.683.158-15.526zm7.506-6.417 4.741 11.566-5.926 12.357-5.136-17.348zM68.64 81.671l10.272-7.842 1.343 2.851-5.373 10.615h-2.054c-1.818 0-3.398.792-4.425 2.06zm-.395-.95-7.902-10.378 17.542 3.09zM83.81 52.836l-21.888-4.912-4.662-11.327 24.18 4.198c.394 1.267 1.975 6.337 2.37 12.04M68.956 31.369l10.904 8.16-23.073-4.04-.553-.08-14.38-2.535 4.82-7.763zM48.49 18.933c.079 0 .079 0 .079.079.158.238 0 .95-.158 1.426l-2.292 3.564L33.4 19.645c5.768-.633 14.46-.87 15.092-.712m-24.495 9.505-.948-2.455c.869-.872 3.95-3.961 5.847-5.308.158-.079.71-.396 2.37-.713l13.196 4.516L25.418 28.2h-.079zm2.528 13.15-3.793-.634v-.079l3.793-.634zm0-2.376-4.188.633v-4.99l2.055-1.901 2.133 3.723zm-.158-4.912 1.502-1.822c1.264.08 3.792-2.06 3.792-2.06l-4.188.238-1.58 2.931-1.027-1.822 1.027-2.693L45.33 25.27l-4.583 7.446-.079.08-13.354 3.168zm1.185 7.447v-4.833l12.327-2.93-5.531 8.95zm7.665 1.742 5.847-9.347.08.08-.159 16.555zm6.084 9.348q.237-.159.395-.159l.08-.079.157-.158 7.19-8.239 5.216 17.665c-1.185.475-4.583 1.822-7.112 2.297l-10.035-9.743c1.423-.317 3.32-1.188 4.11-1.584m-8.217 10.218L30 58.7l6.005-4.04 9.956 9.664h-.632c-2.686-.159-10.746-1.11-12.247-1.268m6.4 11.724a23.5 23.5 0 0 1 2.686 1.743L33.873 87.77a6 6 0 0 0-1.423-.713zm-4.346 17.269v.08a4.255 4.255 0 0 1-4.267 4.277c-.79 0-1.501-.238-2.133-.634-1.265-.792-2.055-2.139-2.055-3.644 0-2.376 1.897-4.277 4.188-4.277q.395 0 .711.079a4.17 4.17 0 0 1 3.556 4.119M30.87 72.64c2.766 0 5.373.634 7.665 1.664l-7.112 12.595a1.8 1.8 0 0 0-.553-.08q-.948 0-1.817.397l-7.428-12.04c2.687-1.585 5.926-2.536 9.245-2.536M12.617 91.018c0-6.416 3.24-11.961 8.139-15.288l7.349 11.882c-1.423.95-2.45 2.614-2.45 4.515 0 1.664.87 3.248 2.133 4.199l-6.558 10.218a18.27 18.27 0 0 1-8.613-15.526m18.253 18.299c-3.16 0-6.163-.792-8.77-2.297l6.479-10.22c.71.397 1.5.555 2.291.555 2.766 0 5.057-2.138 5.294-4.752l13.038-1.11c-.316 9.902-8.376 17.824-18.332 17.824m18.332-18.774-13.117 1.03a4.64 4.64 0 0 0-1.501-3.169l8.376-11.17c3.713 3.249 6.084 8.002 6.242 13.309M45.093 72.64l-2.292 3.169a16.7 16.7 0 0 0-2.844-1.901l2.765-4.832-3.318-4.278c2.291.238 4.662.475 5.847.555.553 0 1.185 0 1.896-.159 2.766-.475 6.322-1.901 7.586-2.376l2.687 4.832-12.406-.159 7.27 7.447 4.977 10.298zm10.351 17.982 4.346-2.693-.316-.396-6.163-12.675L59 70.343l8.534 11.249-.317 9.585a3 3 0 0 0-.236.633l-1.423-.158zm5.926 7.446 4.346-5.307 1.106.08v.395c0 1.822.87 3.486 2.292 4.595zm13.275-.396a5.1 5.1 0 0 1-1.975.396q-.87 0-1.66-.317c-1.896-.633-3.16-2.455-3.16-4.515V93l4.03.396h.079q.355 0 .474-.476c0-.237-.158-.475-.475-.554l-3.95-.396q0-.238.079-.396c.71-1.901 2.528-3.248 4.583-3.248 2.686 0 4.82 2.218 4.82 4.911 0 1.98-1.186 3.723-2.845 4.436m1.896-.079c.79-.634 1.344-1.584 1.739-2.614q.237 1.347.632 2.614zm2.37-6.1q0-1.663.317-3.326l-1.027.079q-.159 1.188-.237 2.455c-.474-1.03-1.186-1.822-2.134-2.455h2.37q.08-.555.238-1.03H75.83l5.373-10.536-1.659-3.564a133 133 0 0 0 3.16-8.476L86.34 75.57c-3.95 2.694-6.795 6.813-7.901 11.645h1.027c1.422-5.941 5.69-10.694 11.3-12.833l4.503 12.595-15.803.238a6 6 0 0 0-.237.95l14.539-.158a5.3 5.3 0 0 0-1.975 4.12 5.4 5.4 0 0 0 2.528 4.594h-.316l-5.69.475-8.375.238c-.632-1.822-1.027-3.803-1.027-5.942m1.344 6.971 8.139-.237 4.425-.396-7.19 7.842c-2.292-1.901-4.189-4.357-5.374-7.209m16.989 11.407c-4.03 0-7.823-1.346-10.826-3.564l7.902-8.556 2.845-.237c2.923-.08 5.215-2.456 5.215-5.387q0-.475-.079-.95h13.195v.316c0 10.14-8.217 18.378-18.252 18.378" clip-rule="evenodd"/></g><defs><linearGradient id="b" x1="12.064" x2="116.366" y1="74.051" y2="74.051" gradientUnits="userSpaceOnUse"><stop stop-color="#FEAFE7"/><stop offset="1" stop-color="#C100C0"/></linearGradient></defs></svg>
